X: 1234
T: Over the Bridge to Peggy
M:C|
L:1/8
R:Reel
B:O'Neill's 1234
N:Collected by Ennis
Z:Transcribed by Trish O'Neil
K:D
dB|AFdB AFDF|AFdBA2dB|AFdB ABde|fedfe2dB|
AFdB AFDF|AFdBA2de|faaf gece|dBAFD2z2||
defg abaf|gage abaf|defg abaf|bgafe2d2|
defga2af|bagba2af|gfegf2fd|egfd efdB||


